src/img/papaya-mark.svg

<svg height="297" viewBox="0 0 297 297" width="297" xmlns="http://www.w3.org/2000/svg"><g fill="none" fill-rule="evenodd" transform="matrix(.9945219 -.10452846 .10452846 .9945219 16.557653 25.504739)"><path d="m42.207691 25.2823795c-22.9023438 33.7148438-63.34375 153.6875005-26.0664063 204.6757815 37.2773438 50.988281 159.6132813 54.972656 198.0429683 0 38.429688-54.972656-13.230468-171.2500002-34.308593-204.6757815-21.078125-33.42578124-114.7656253-33.71484374-137.667969 0z" fill="#fa8b49" stroke="#1d1d1d" stroke-width="23"/><path d="m205.500982 96.1045285s18.254533 67.6301655-24.943237 117.4541165c-43.197769 49.823951-134.5632231 40.134644-134.5632231 40.134644l77.0761131 16.895295 87.727701-37.17469s10.683594-23.048828 11.476563-25.007812c.792968-1.958985 7.923828-38.759766 7.923828-38.759766l-9.019531-33.164063z" fill="#de7333"/><path d="m42.207691 25.2823795c-22.9023438 33.7148438-63.34375 153.6875005-26.0664063 204.6757815 37.2773438 50.988281 159.6132813 54.972656 198.0429683 0 38.429688-54.972656-13.230468-171.2500002-34.308593-204.6757815-21.078125-33.42578124-114.7656253-33.71484374-137.667969 0z" stroke="#231639" stroke-width="23"/><circle cx="60.494522" cy="119.604528" fill="#1d1d1d" r="11.5"/><circle cx="164.494522" cy="119.604528" fill="#1d1d1d" r="11.5"/><path d="m89.4664015 149.181666s23.1171875 14.841797 46.2343745 0" stroke="#1d1d1d" stroke-linecap="round" stroke-width="12"/></g></svg>

<?xml version="1.0" encoding="UTF-8"?>
<svg width="297px" height="308px" viewBox="0 0 297 308" version="1.1" xmlns="http://www.w3.org/2000/svg" xmlns:xlink="http://www.w3.org/1999/xlink">
    <!-- Generator: Sketch 43.2 (39069) - http://www.bohemiancoding.com/sketch -->
    <title>Artboard</title>
    <desc>Created with Sketch.</desc>
    <defs></defs>
    <g id="Page-1" stroke="none" stroke-width="1" fill="none" fill-rule="evenodd">
        <g id="Artboard">
            <g id="Group" transform="translate(145.588539, 159.189418) rotate(-6.000000) translate(-145.588539, -159.189418) translate(30.088539, 23.689418)">
                <path d="M42.207691,25.2823795 C19.3053472,58.9972233 -21.136059,178.96988 16.1412847,229.958161 C53.4186285,280.946442 175.754566,284.930817 214.184253,229.958161 C252.613941,174.985505 200.953785,58.7081608 179.87566,25.2823795 C158.797535,-8.14340174 65.1100347,-8.43246424 42.207691,25.2823795 Z" id="Path" stroke="#1D1D1D" stroke-width="23" fill="#FA8B49"></path>
                <path d="M205.500982,96.1045285 C205.500982,96.1045285 223.755515,163.734694 180.557745,213.558645 C137.359976,263.382596 45.9945219,253.693289 45.9945219,253.693289 L123.070635,270.588584 L210.798336,233.413894 C210.798336,233.413894 221.48193,210.365066 222.274899,208.406082 C223.067867,206.447097 230.198727,169.646316 230.198727,169.646316 L221.179196,136.482253 L205.500982,96.1045285 Z" id="Path-3" fill="#DE7333"></path>
                <path d="M42.207691,25.2823795 C19.3053472,58.9972233 -21.136059,178.96988 16.1412847,229.958161 C53.4186285,280.946442 175.754566,284.930817 214.184253,229.958161 C252.613941,174.985505 200.953785,58.7081608 179.87566,25.2823795 C158.797535,-8.14340174 65.1100347,-8.43246424 42.207691,25.2823795 Z" id="Path-Copy" stroke="#231639" stroke-width="23"></path>
                <circle id="Oval" fill="#1D1D1D" cx="60.4945219" cy="119.604528" r="11.5"></circle>
                <circle id="Oval" fill="#1D1D1D" cx="164.494522" cy="119.604528" r="11.5"></circle>
                <path d="M89.4664015,149.181666 C89.4664015,149.181666 112.583589,164.023463 135.700776,149.181666" id="Path-2" stroke="#1D1D1D" stroke-width="12" stroke-linecap="round"></path>
            </g>
        </g>
    </g>
</svg>
